X: 20152
M: C|
L: 1/8
K: F
|: fg |\
a3g fefg | a2e>e e2a2 | fed^c defg | a2e>e e2f2 |\
c3d cBAF | Acde f3B | AfdB A2G2 | F2F>F F2 :|


